X: 187
T: Miss Forster's Delight
B: 204 Favourite Country Dances
N: Published by Straight & Skillern, London ca.1775
F: http://imslp.org/wiki/204_Favourite_Country_Dances_(Various) p.94 #187
Z: 2014 John Chambers <jc:trillian.mit.edu>
M: 6/8
L: 1/8
K: G
% - - - - - - - - - - - - - - - - - - - - - - - - -
|:\
g3 efg | d3 efg | fed cBA | Bdc BAG |\
g3 efg | d3 efg | fed cBA | G3 HG,3 :|
|:\
d3 ^cde | d3 efg | fag fed | ^ced cBA |\
d3 ^cde | d3 efg | agf ed^c | d3 "D.C."D3 |]
% - - - - - - - - - - - - - - - - - - - - - - - - -
%%begintext align
%% Right hands across at top .| Left hands back
%% again .|. cast off one Cu. and foot it all Six :|.
%% Right and Left at top :|:
%%endtext

%%sep 1 1 500
%%sep 1 1 500
